X: 11
T: Hardiman The Fiddler
Z: chansherly212
S: https://thesession.org/tunes/48#setting54096
R: slip jig
M: 9/8
L: 1/8
K: Ador
|:A2G FDE F2G|A2A AGA cAG|A2G FDE F2G|A2d ded cAG:|
A2d d^cdf3|A2d ded cAG|Add d^cd f2g|agf ged cAG|
A2d d^cd f3|Add ded cAG|dcAd2e f2g|agf ged cAG|

